X:1
T:Haste to the Wedding 
T:Rory O'More
C:Adderbury
M:6/8
L:1/8
A:Adderbury
P:A(AB)6
K:F
P:A
d|cAF AFF|AFF F2d|cAA AGF|EGG G2d|
cAF AGF|ABc d2c/B/|Acc cde|fFF F2 ||
P:B
f|fed dcA|BAG F2E|DEF FGA|Bdc c2F|
fed dcA|Bcd ddc|Acc cde|fFF F2 ||
</abc>
